Papirus/64x64/apps/syncthing-gtk.svg

<?xml version="1.0" encoding="UTF-8" standalone="no"?>
<svg
   id="_图层_1"
   version="1.1"
   viewBox="0 0 64 64" width="64" height="64"
   sodipodi:docname="syncthing-gtk.svg"
   xml:space="preserve"
   inkscape:version="1.4 (e7c3feb100, 2024-10-09)"
   xmlns:inkscape="http://www.inkscape.org/namespaces/inkscape"
   xmlns:sodipodi="http://sodipodi.sourceforge.net/DTD/sodipodi-0.dtd"
   xmlns:xlink="http://www.w3.org/1999/xlink"
   xmlns="http://www.w3.org/2000/svg"
   xmlns:svg="http://www.w3.org/2000/svg"><sodipodi:namedview
     id="namedview26"
     pagecolor="#505050"
     bordercolor="#eeeeee"
     borderopacity="1"
     inkscape:showpageshadow="0"
     inkscape:pageopacity="0"
     inkscape:pagecheckerboard="0"
     inkscape:deskcolor="#505050"
     inkscape:zoom="10.6875"
     inkscape:cx="32"
     inkscape:cy="32"
     inkscape:window-width="1920"
     inkscape:window-height="939"
     inkscape:window-x="0"
     inkscape:window-y="34"
     inkscape:window-maximized="1"
     inkscape:current-layer="_图层_1" /><!-- Generator: Adobe Illustrator 29.0.1, SVG Export Plug-In . SVG Version: 2.1.0 Build 192)  --><defs
     id="defs6"><style
       id="style1">
      .st0 {
        fill-opacity: .5;
      }

      .st0, .st1, .st2, .st3, .st4, .st5, .st6, .st7 {
        fill: #fff;
      }

      .st8 {
        fill: #133c9a;
      }

      .st2, .st9 {
        display: none;
      }

      .st3 {
        fill-opacity: .2;
      }

      .st4 {
        fill-opacity: .9;
      }

      .st10 {
        fill: #3370ff;
      }

      .st11 {
        fill: url(#_未命名的渐变_3);
      }

      .st12 {
        fill: url(#_未命名的渐变);
      }

      .st5 {
        fill-opacity: .3;
      }

      .st6 {
        fill-opacity: 0;
      }

      .st7 {
        fill-opacity: .7;
      }

      .st13 {
        fill: #00d6b9;
      }

      .st14 {
        fill: url(#_未命名的渐变_2);
      }
    </style><radialGradient
       id="_未命名的渐变"
       data-name="未命名的渐变"
       cx="123.9"
       cy="-40.2"
       fx="123.9"
       fy="-40.2"
       r="59.4"
       gradientTransform="translate(-26.8 25.5) scale(.6 -.7)"
       gradientUnits="userSpaceOnUse"><stop
         offset="0"
         stop-color="#db202e"
         id="stop1" /><stop
         offset="1"
         stop-color="#e01b24"
         id="stop2" /></radialGradient><radialGradient
       id="_未命名的渐变_2"
       data-name="未命名的渐变 2"
       cx="67.6"
       cy="26.8"
       fx="67.6"
       fy="26.8"
       r="105.2"
       gradientTransform="translate(-26.6 25.3) scale(.6 -.7)"
       gradientUnits="userSpaceOnUse"><stop
         offset="0"
         stop-color="#ffb648"
         id="stop3" /><stop
         offset="1"
         stop-color="#ff7800"
         stop-opacity="0"
         id="stop4" /></radialGradient><radialGradient
       id="_未命名的渐变_3"
       data-name="未命名的渐变 3"
       cx="61.7"
       cy="18.6"
       fx="61.7"
       fy="18.6"
       r="68"
       gradientTransform="translate(-26.8 25.8) scale(.6 -.7)"
       gradientUnits="userSpaceOnUse"><stop
         offset="0"
         stop-color="#c64600"
         id="stop5" /><stop
         offset="1"
         stop-color="#a51d2d"
         id="stop6" /></radialGradient><linearGradient
       id="linearGradient1261"><stop
         style="stop-color:#4f4f4f"
         offset="0"
         id="stop1-7" /><stop
         style="stop-color:#3f3f3f"
         offset="1"
         id="stop2-0" /></linearGradient><linearGradient
       id="linearGradient1263"
       x1="34.241"
       x2="37.169"
       y1="38.945"
       y2="30.342"
       gradientTransform="matrix(1.3919157,0,0,1.3888889,-1.321022,-0.4865665)"
       gradientUnits="userSpaceOnUse"
       xlink:href="#linearGradient1261" /></defs><path
     class="st1"
     d="M47.5,64.1H13.8c-7.6,0-13.8-6.3-13.8-13.8V13.7C0,6.2,6.2,0,13.7,0h36.6c7.5,0,13.7,6.2,13.7,13.7v36.6c0,7.5-6.2,13.7-13.7,13.7h-2.9.1Z"
     id="path6"
     style="fill:#1ca4d4;fill-opacity:1" /><g
     id="g26"
     transform="matrix(1.1453634,0,0,1.1460962,-4.5112782,-4.5463732)"><path
       style="opacity:0.2"
       d="m 32,13 c -11.046,0 -20,8.955 -20,20 0,11.046 8.954,20 20,20 11.045,0 20,-8.954 20,-20 -0.009,-2.33 -0.426,-4.641 -1.231,-6.827 l 0.042,-0.032 -0.104,-0.148 C 47.787,18.187 40.333,13.01 32,13 Z m 0,2 c 6.723,0.003 12.884,3.753 15.975,9.723 L 35.496,33.64 14.204,35.574 C 14.074,34.722 14.006,33.862 14,33 14,23.059 22.059,15 32,15 Z m 17.077,12.379 c 0.604,1.813 0.916,3.71 0.923,5.621 -0.005,4.74 -1.879,9.286 -5.215,12.652 l -6.867,-10.3 z m -13.781,9.089 7.347,11.02 C 39.56,49.762 35.831,50.992 32,51 24.12,50.991 17.162,45.858 14.828,38.332 Z"
       id="path2" /><path
       style="fill:#ffffff"
       d="m 32,12 c -11.046,0 -20,8.955 -20,20 0,11.046 8.954,20 20,20 11.045,0 20,-8.954 20,-20 -0.009,-2.33 -0.426,-4.641 -1.231,-6.827 l 0.042,-0.032 -0.104,-0.148 C 47.787,17.187 40.333,12.01 32,12 Z m 0,2 c 6.723,0.003 12.884,3.753 15.975,9.723 L 35.496,32.64 14.204,34.574 C 14.074,33.722 14.006,32.862 14,32 14,22.059 22.059,14 32,14 Z m 17.077,12.379 c 0.604,1.813 0.916,3.71 0.923,5.621 -0.005,4.74 -1.879,9.286 -5.215,12.652 l -6.867,-10.3 z m -13.781,9.089 7.347,11.02 C 39.56,48.762 35.831,49.992 32,50 24.12,49.991 17.162,44.858 14.828,37.332 Z"
       id="path3" /><circle
       style="opacity:0.2"
       cx="14"
       cy="37"
       r="4"
       id="circle3" /><circle
       style="fill:#ffffff"
       cx="14"
       cy="36"
       r="4"
       id="circle4" /><circle
       style="opacity:0.2"
       cx="44"
       cy="47"
       r="4"
       id="circle5" /><circle
       style="fill:#ffffff"
       cx="44"
       cy="46"
       r="4"
       id="circle6" /><circle
       style="opacity:0.2"
       cx="50"
       cy="25"
       r="4"
       id="circle7" /><circle
       style="fill:#ffffff"
       cx="50"
       cy="24"
       r="4"
       id="circle8" /><circle
       style="opacity:0.2"
       cx="36"
       cy="35"
       r="4"
       id="circle9" /><circle
       style="fill:#ffffff"
       cx="36"
       cy="34"
       r="4"
       id="circle10" /></g></svg>

<svg xmlns="http://www.w3.org/2000/svg" width="64" height="64" version="1">
 <circle style="opacity:0.2" cx="32" cy="33" r="28"/>
 <circle style="fill:#1ca4d4" cx="32" cy="32" r="28"/>
 <path style="opacity:0.2" d="M 32,13 C 20.954,13 12,21.955 12,33 12,44.046 20.954,53 32,53 43.045,53 52,44.046 52,33 51.991,30.67 51.574,28.359 50.769,26.173 L 50.811,26.141 50.707,25.993 C 47.787,18.187 40.333,13.01 32,13 Z M 32,15 C 38.723,15.003 44.884,18.753 47.975,24.723 L 35.496,33.64 14.204,35.574 C 14.074,34.722 14.006,33.862 14,33 14,23.059 22.059,15 32,15 Z M 49.077,27.379 C 49.681,29.192 49.993,31.089 50,33 49.995,37.74 48.121,42.286 44.785,45.652 L 37.918,35.352 Z M 35.296,36.468 42.643,47.488 C 39.56,49.762 35.831,50.992 32,51 24.12,50.991 17.162,45.858 14.828,38.332 Z"/>
 <path style="fill:#ffffff" d="M 32,12 C 20.954,12 12,20.955 12,32 12,43.046 20.954,52 32,52 43.045,52 52,43.046 52,32 51.991,29.67 51.574,27.359 50.769,25.173 L 50.811,25.141 50.707,24.993 C 47.787,17.187 40.333,12.01 32,12 Z M 32,14 C 38.723,14.003 44.884,17.753 47.975,23.723 L 35.496,32.64 14.204,34.574 C 14.074,33.722 14.006,32.862 14,32 14,22.059 22.059,14 32,14 Z M 49.077,26.379 C 49.681,28.192 49.993,30.089 50,32 49.995,36.74 48.121,41.286 44.785,44.652 L 37.918,34.352 Z M 35.296,35.468 42.643,46.488 C 39.56,48.762 35.831,49.992 32,50 24.12,49.991 17.162,44.858 14.828,37.332 L 35.296,35.468 Z"/>
 <circle style="opacity:0.2" cx="14" cy="37" r="4"/>
 <circle style="fill:#ffffff" cx="14" cy="36" r="4"/>
 <circle style="opacity:0.2" cx="44" cy="47" r="4"/>
 <circle style="fill:#ffffff" cx="44" cy="46" r="4"/>
 <circle style="opacity:0.2" cx="50" cy="25" r="4"/>
 <circle style="fill:#ffffff" cx="50" cy="24" r="4"/>
 <circle style="opacity:0.2" cx="36" cy="35" r="4"/>
 <circle style="fill:#ffffff" cx="36" cy="34" r="4"/>
 <path style="opacity:0.2;fill:#ffffff" d="M 32 4 A 28 28 0 0 0 4 32 A 28 28 0 0 0 4.0215 32.586 A 28 28 0 0 1 32 5 A 28 28 0 0 1 59.979 32.414 A 28 28 0 0 0 60 32 A 28 28 0 0 0 32 4 z"/>
</svg>
